; generated by Slic3r 0.9.8 on 2013-10-23 at 15:53:12

; layer_height = 0.4
; perimeters = 3
; top_solid_layers = 3
; bottom_solid_layers = 3
; fill_density = 0.4
; perimeter_speed = 30
; infill_speed = 60
; travel_speed = 130
; scale = 1
; nozzle_diameter = 0.5
; filament_diameter = 3
; extrusion_multiplier = 1
; perimeters extrusion width = 0.70mm
; infill extrusion width = 0.53mm
; first layer extrusion width = 0.80mm

M107
M104 S200 ; set temperature
G28 ; home all axes
M109 S200 ; wait for temperature to be reached
G90 ; use absolute coordinates
G21 ; set units to millimeters
G92 E0
M82 ; use absolute distances for extrusion
G1 F1800.000 E-1.00000
G92 E0
G1 Z0.400 F7800.000
G1 X116.860 Y116.860
G1 F1800.000 E1.00000
G1 X115.840 Y117.700 F540.000 E1.05501
G1 X114.680 Y118.320 E1.10976
G1 X113.410 Y118.710 E1.16506
G1 X112.100 Y118.840 E1.21986
G1 X87.900 Y118.840 E2.22725
G1 X86.590 Y118.710 E2.28205
G1 X85.320 Y118.320 E2.33735
G1 X84.160 Y117.700 E2.39210
G1 X83.140 Y116.860 E2.44711
G1 X82.300 Y115.840 E2.50211
G1 X81.680 Y114.680 E2.55687
G1 X81.290 Y113.410 E2.61217
G1 X81.160 Y112.100 E2.66697
G1 X81.160 Y87.900 E3.67436
G1 X81.290 Y86.590 E3.72916
G1 X81.680 Y85.320 E3.78446
G1 X82.300 Y84.160 E3.83921
G1 X83.140 Y83.140 E3.89422
G1 X84.160 Y82.300 E3.94922
G1 X85.320 Y81.680 E4.00398
G1 X86.590 Y81.290 E4.05928
G1 X87.900 Y81.160 E4.11408
G1 X112.100 Y81.160 E5.12147
G1 X113.410 Y81.290 E5.17627
G1 X114.680 Y81.680 E5.23157
G1 X115.840 Y82.300 E5.28632
G1 X116.860 Y83.140 E5.34133
G1 X117.700 Y84.160 E5.39633
G1 X118.320 Y85.320 E5.45108
G1 X118.710 Y86.590 E5.50639
G1 X118.840 Y87.900 E5.56119
G1 X118.840 Y112.100 E6.56857
G1 X118.710 Y113.410 E6.62337
G1 X118.320 Y114.680 E6.67868
G1 X117.700 Y115.840 E6.73343
G1 X116.930 Y116.775 E6.78384
G1 X116.860 Y116.860 E6.78843
G1 F1800.000 E5.78843
G92 E0
G1 X110.400 Y110.400 F7800.000
G1 F1800.000 E1.00000
G1 X89.600 Y110.400 F540.000 E1.86585
G1 X89.600 Y89.600 E2.73171
G1 X110.400 Y89.600 E3.59756
G1 X110.400 Y110.290 E4.45882
G1 X110.400 Y110.400 E4.46341
G1 X110.400 Y111.136 F7800.000
G1 F1800.000 E3.46341
G92 E0
G1 X87.900 Y112.100 F7800.000
G1 F1800.000 E1.00000
G1 X87.900 Y87.900 F540.000 E2.00739
G1 X112.100 Y87.900 E3.01477
G1 X112.100 Y112.100 E4.02216
G1 X88.010 Y112.100 E5.02495
G1 X87.900 Y112.100 E5.02955
G1 X88.902 Y111.566 F7800.000
G1 X88.434 Y111.098 F360.000 E5.05748
G1 X89.066 Y110.677 E5.08955
G1 X88.434 Y110.044 E5.12730
G1 X89.066 Y109.622 E5.15936
G1 X88.434 Y108.990 E5.19711
G1 X89.066 Y108.568 E5.22917
G1 X88.434 Y107.936 E5.26692
G1 X89.066 Y107.514 E5.29899
G1 X88.434 Y106.881 E5.33673
G1 X89.066 Y106.460 E5.36880
G1 X88.434 Y105.827 E5.40654
G1 X89.066 Y105.406 E5.43861
G1 X88.434 Y104.773 E5.47635
G1 X89.066 Y104.352 E5.50842
G1 X88.434 Y103.719 E5.54616
G1 X89.066 Y103.297 E5.57823
G1 X88.434 Y102.665 E5.61598
G1 X89.066 Y102.243 E5.64804
G1 X88.434 Y101.611 E5.68579
G1 X89.066 Y101.189 E5.71785
G1 X88.434 Y100.556 E5.75560
G1 X89.066 Y100.135 E5.78767
G1 X88.434 Y99.502 E5.82541
G1 X89.066 Y99.081 E5.85748
G1 X88.434 Y98.448 E5.89522
G1 X89.066 Y98.027 E5.92729
G1 X88.434 Y97.394 E5.96503
G1 X89.066 Y96.973 E5.99710
G1 X88.434 Y96.340 E6.03484
G1 X89.066 Y95.918 E6.06691
G1 X88.434 Y95.286 E6.10466
G1 X89.066 Y94.864 E6.13672
G1 X88.434 Y94.231 E6.17447
G1 X89.066 Y93.810 E6.20654
G1 X88.434 Y93.177 E6.24428
G1 X89.066 Y92.756 E6.27635
G1 X88.434 Y92.123 E6.31409
G1 X89.066 Y91.702 E6.34616
G1 X88.434 Y91.069 E6.38390
G1 X89.066 Y90.648 E6.41597
G1 X88.434 Y90.015 E6.45371
G1 X89.066 Y89.593 E6.48578
G1 X88.434 Y88.961 E6.52353
G1 X88.961 Y88.434 E6.55497
G1 X89.593 Y89.066 E6.59271
G1 X90.015 Y88.434 E6.62478
G1 X90.648 Y89.066 E6.66252
G1 X91.069 Y88.434 E6.69459
G1 X91.702 Y89.066 E6.73233
G1 X92.123 Y88.434 E6.76440
G1 X92.756 Y89.066 E6.80215
G1 X93.177 Y88.434 E6.83421
G1 X93.810 Y89.066 E6.87196
G1 X94.232 Y88.434 E6.90402
G1 X94.864 Y89.066 E6.94177
G1 X95.286 Y88.434 E6.97384
G1 X95.918 Y89.066 E7.01158
G1 X96.340 Y88.434 E7.04365
G1 X96.973 Y89.066 E7.08139
G1 X97.394 Y88.434 E7.11346
G1 X98.027 Y89.066 E7.15120
G1 X98.448 Y88.434 E7.18327
G1 X99.081 Y89.066 E7.22101
G1 X99.502 Y88.434 E7.25308
G1 X100.135 Y89.066 E7.29083
G1 X100.556 Y88.434 E7.32289
G1 X101.189 Y89.066 E7.36064
G1 X101.611 Y88.434 E7.39270
G1 X102.243 Y89.066 E7.43045
G1 X102.665 Y88.434 E7.46252
G1 X103.298 Y89.066 E7.50026
G1 X103.719 Y88.434 E7.53233
G1 X104.352 Y89.066 E7.57007
G1 X104.773 Y88.434 E7.60214
G1 X105.406 Y89.066 E7.63988
G1 X105.827 Y88.434 E7.67195
G1 X106.460 Y89.066 E7.70969
G1 X106.881 Y88.434 E7.74176
G1 X107.514 Y89.066 E7.77951
G1 X107.936 Y88.434 E7.81157
G1 X108.568 Y89.066 E7.84932
G1 X108.990 Y88.434 E7.88138
G1 X109.622 Y89.066 E7.91913
G1 X110.044 Y88.434 E7.95120
G1 X110.677 Y89.066 E7.98894
G1 X110.934 Y89.323 F7800.000
G1 X111.566 Y89.956 F360.000 E8.02668
G1 X110.934 Y90.378 E8.05875
G1 X111.566 Y91.010 E8.09650
G1 X110.934 Y91.432 E8.12856
G1 X111.566 Y92.064 E8.16631
G1 X110.934 Y92.486 E8.19837
G1 X111.566 Y93.119 E8.23612
G1 X110.934 Y93.540 E8.26819
G1 X111.566 Y94.173 E8.30593
G1 X110.934 Y94.594 E8.33800
G1 X111.566 Y95.227 E8.37574
G1 X110.934 Y95.648 E8.40781
G1 X111.566 Y96.281 E8.44555
G1 X110.934 Y96.702 E8.47762
G1 X111.566 Y97.335 E8.51537
G1 X110.934 Y97.757 E8.54743
G1 X111.566 Y98.389 E8.58518
G1 X110.934 Y98.811 E8.61724
G1 X111.566 Y99.444 E8.65499
G1 X110.934 Y99.865 E8.68706
G1 X111.566 Y100.498 E8.72480
G1 X110.934 Y100.919 E8.75687
G1 X111.566 Y101.552 E8.79461
G1 X110.934 Y101.973 E8.82668
G1 X111.566 Y102.606 E8.86442
G1 X110.934 Y103.027 E8.89649
G1 X111.566 Y103.660 E8.93423
G1 X110.934 Y104.082 E8.96630
G1 X111.566 Y104.714 E9.00405
G1 X110.934 Y105.136 E9.03611
G1 X111.566 Y105.768 E9.07386
G1 X110.934 Y106.190 E9.10592
G1 X111.566 Y106.823 E9.14367
G1 X110.934 Y107.244 E9.17574
G1 X111.566 Y107.877 E9.21348
G1 X110.934 Y108.298 E9.24555
G1 X111.566 Y108.931 E9.28329
G1 X110.934 Y109.352 E9.31536
G1 X111.566 Y109.985 E9.35310
G1 X110.934 Y110.407 E9.38517
G1 X111.566 Y111.039 E9.42292
G1 X111.039 Y111.566 E9.45436
G1 X110.407 Y110.934 E9.49210
G1 X109.985 Y111.566 E9.52417
G1 X109.352 Y110.934 E9.56191
G1 X108.931 Y111.566 E9.59398
G1 X108.298 Y110.934 E9.63172
G1 X107.877 Y111.566 E9.66379
G1 X107.244 Y110.934 E9.70154
G1 X106.823 Y111.566 E9.73360
G1 X106.190 Y110.934 E9.77135
G1 X105.769 Y111.566 E9.80341
G1 X105.136 Y110.934 E9.84116
G1 X104.714 Y111.566 E9.87323
G1 X104.082 Y110.934 E9.91097
G1 X103.660 Y111.566 E9.94304
G1 X103.027 Y110.934 E9.98078
G1 X102.606 Y111.566 E10.01285
G1 X101.973 Y110.934 E10.05059
G1 X101.552 Y111.566 E10.08266
G1 X100.919 Y110.934 E10.12040
G1 X100.498 Y111.566 E10.15247
G1 X99.865 Y110.934 E10.19022
G1 X99.444 Y111.566 E10.22228
G1 X98.811 Y110.934 E10.26003
G1 X98.389 Y111.566 E10.29209
G1 X97.757 Y110.934 E10.32984
G1 X97.335 Y111.566 E10.36191
G1 X96.703 Y110.934 E10.39965
G1 X96.281 Y111.566 E10.43172
G1 X95.648 Y110.934 E10.46946
G1 X95.227 Y111.566 E10.50153
G1 X94.594 Y110.934 E10.53927
G1 X94.173 Y111.566 E10.57134
G1 X93.540 Y110.934 E10.60908
G1 X93.119 Y111.566 E10.64115
G1 X92.486 Y110.934 E10.67890
G1 X92.064 Y111.566 E10.71096
G1 X91.432 Y110.934 E10.74871
G1 X91.010 Y111.566 E10.78077
G1 X90.378 Y110.934 E10.81852
G1 X89.956 Y111.566 E10.85059
G1 X89.323 Y110.934 E10.88833
G1 F1800.000 E9.88833
G92 E0
G1 X111.566 Y88.902 F7800.000
G1 F1800.000 E1.00000
G1 X111.098 Y88.434 F360.000 E1.02794
M106 S255
G1 F1800.000 E0.02794
G92 E0
G1 Z0.800 F7800.000
G1 X110.350 Y89.650
G1 F1800.000 E1.00000
G1 X110.350 Y110.350 F1480.372 E1.76969
G1 X89.650 Y110.350 E2.53938
G1 X89.650 Y89.650 E3.30907
G1 X110.251 Y89.650 E4.07510
G1 X110.350 Y89.650 E4.07876
G1 X111.007 Y89.650 F7800.000
G1 F1800.000 E3.07876
G92 E0
G1 X87.850 Y87.850 F7800.000
G1 F1800.000 E1.00000
G1 X112.150 Y87.850 F1480.372 E1.90355
G1 X112.150 Y112.150 E2.80710
G1 X87.850 Y112.150 E3.71065
G1 X87.850 Y87.949 E4.61053
G1 X87.850 Y87.850 E4.61420
G1 F1800.000 E3.61420
G92 E0
G1 X111.603 Y110.990 F7800.000
G1 F1800.000 E1.00000
G1 X110.990 Y111.603 F986.915 E1.04756
G1 X110.327 Y110.897 E1.10064
G1 X109.620 Y111.603 E1.15539
G1 X108.958 Y110.897 E1.20847
G1 X108.251 Y111.603 E1.26323
G1 X107.588 Y110.897 E1.31631
G1 X106.882 Y111.603 E1.37107
G1 X106.219 Y110.897 E1.42414
G1 X105.512 Y111.603 E1.47890
G1 X104.850 Y110.897 E1.53198
G1 X104.143 Y111.603 E1.58674
G1 X103.481 Y110.897 E1.63981
G1 X102.774 Y111.603 E1.69457
G1 X102.111 Y110.897 E1.74765
G1 X101.405 Y111.603 E1.80241
G1 X100.742 Y110.897 E1.85548
G1 X100.035 Y111.603 E1.91024
G1 X99.373 Y110.897 E1.96332
G1 X98.666 Y111.603 E2.01808
G1 X98.004 Y110.897 E2.07116
G1 X97.297 Y111.603 E2.12591
G1 X96.634 Y110.897 E2.17899
G1 X95.928 Y111.603 E2.23375
G1 X95.265 Y110.897 E2.28683
G1 X94.558 Y111.603 E2.34159
G1 X93.896 Y110.897 E2.39466
G1 X93.189 Y111.603 E2.44942
G1 X92.527 Y110.897 E2.50250
G1 X91.820 Y111.603 E2.55726
G1 X91.157 Y110.897 E2.61033
G1 X90.451 Y111.603 E2.66509
G1 X89.788 Y110.897 E2.71817
G1 X89.081 Y111.603 E2.77293
G1 X88.397 Y110.919 E2.82598
G1 X89.103 Y110.212 E2.88074
G1 X88.397 Y109.549 E2.93381
G1 X89.103 Y108.843 E2.98857
G1 X88.397 Y108.180 E3.04165
G1 X89.103 Y107.473 E3.09641
G1 X88.397 Y106.811 E3.14948
G1 X89.103 Y106.104 E3.20424
G1 X88.397 Y105.442 E3.25732
G1 X89.103 Y104.735 E3.31208
G1 X88.397 Y104.072 E3.36515
G1 X89.103 Y103.366 E3.41991
G1 X88.397 Y102.703 E3.47299
G1 X89.103 Y101.996 E3.52775
G1 X88.397 Y101.334 E3.58082
G1 X89.103 Y100.627 E3.63558
G1 X88.397 Y99.965 E3.68866
G1 X89.103 Y99.258 E3.74342
G1 X88.397 Y98.595 E3.79650
G1 X89.103 Y97.889 E3.85126
G1 X88.397 Y97.226 E3.90433
G1 X89.103 Y96.519 E3.95909
G1 X88.397 Y95.857 E4.01217
G1 X89.103 Y95.150 E4.06693
G1 X88.397 Y94.487 E4.12000
G1 X89.103 Y93.781 E4.17476
G1 X88.397 Y93.118 E4.22784
G1 X89.103 Y92.412 E4.28260
G1 X88.397 Y91.749 E4.33567
G1 X89.103 Y91.042 E4.39043
G1 X88.397 Y90.380 E4.44351
G1 X89.103 Y89.673 E4.49827
G1 X89.673 Y89.103 F7800.000
G1 X90.380 Y88.397 F986.915 E4.55303
G1 X91.042 Y89.103 E4.60610
G1 X91.749 Y88.397 E4.66086
G1 X92.412 Y89.103 E4.71394
G1 X93.118 Y88.397 E4.76870
G1 X93.781 Y89.103 E4.82178
G1 X94.487 Y88.397 E4.87653
G1 X95.150 Y89.103 E4.92961
G1 X95.857 Y88.397 E4.98437
G1 X96.519 Y89.103 E5.03745
G1 X97.226 Y88.397 E5.09221
G1 X97.889 Y89.103 E5.14528
G1 X98.595 Y88.397 E5.20004
G1 X99.258 Y89.103 E5.25312
G1 X99.965 Y88.397 E5.30788
G1 X100.627 Y89.103 E5.36095
G1 X101.334 Y88.397 E5.41571
G1 X101.996 Y89.103 E5.46879
G1 X102.703 Y88.397 E5.52355
G1 X103.366 Y89.103 E5.57662
G1 X104.072 Y88.397 E5.63138
G1 X104.735 Y89.103 E5.68446
G1 X105.442 Y88.397 E5.73922
G1 X106.104 Y89.103 E5.79230
G1 X106.811 Y88.397 E5.84705
G1 X107.473 Y89.103 E5.90013
G1 X108.180 Y88.397 E5.95489
G1 X108.843 Y89.103 E6.00797
G1 X109.549 Y88.397 E6.06273
G1 X110.212 Y89.103 E6.11580
G1 X110.919 Y88.397 E6.17056
G1 X111.603 Y89.081 E6.22361
G1 X110.897 Y89.788 E6.27837
G1 X111.603 Y90.451 E6.33145
G1 X110.897 Y91.157 E6.38621
G1 X111.603 Y91.820 E6.43928
G1 X110.897 Y92.527 E6.49404
G1 X111.603 Y93.189 E6.54712
G1 X110.897 Y93.896 E6.60188
G1 X111.603 Y94.558 E6.65495
G1 X110.897 Y95.265 E6.70971
G1 X111.603 Y95.928 E6.76279
G1 X110.897 Y96.634 E6.81755
G1 X111.603 Y97.297 E6.87062
G1 X110.897 Y98.004 E6.92538
G1 X111.603 Y98.666 E6.97846
G1 X110.897 Y99.373 E7.03322
G1 X111.603 Y100.035 E7.08629
G1 X110.897 Y100.742 E7.14105
G1 X111.603 Y101.405 E7.19413
G1 X110.897 Y102.111 E7.24889
G1 X111.603 Y102.774 E7.30197
G1 X110.897 Y103.481 E7.35672
G1 X111.603 Y104.143 E7.40980
G1 X110.897 Y104.850 E7.46456
G1 X111.603 Y105.512 E7.51764
G1 X110.897 Y106.219 E7.57240
G1 X111.603 Y106.882 E7.62547
G1 X110.897 Y107.588 E7.68023
G1 X111.603 Y108.251 E7.73331
G1 X110.897 Y108.958 E7.78807
G1 X111.603 Y109.620 E7.84114
G1 X110.897 Y110.327 E7.89590
G1 F1800.000 E6.89590
G92 E0
G1 X89.010 Y88.397 F7800.000
G1 F1800.000 E1.00000
G1 X88.397 Y89.010 F986.915 E1.04756
G1 F1800.000 E0.04756
G92 E0
G1 Z1.200 F7800.000
G1 X89.650 Y89.650
G1 F1800.000 E1.00000
G1 X110.350 Y89.650 F1480.372 E1.76969
G1 X110.350 Y110.350 E2.53938
G1 X89.650 Y110.350 E3.30907
G1 X89.650 Y89.749 E4.07510
G1 X89.650 Y89.650 E4.07876
G1 X89.650 Y88.993 F7800.000
G1 F1800.000 E3.07876
G92 E0
G1 X87.850 Y112.150 F7800.000
G1 F1800.000 E1.00000
G1 X87.850 Y87.850 F1480.372 E1.90355
G1 X112.150 Y87.850 E2.80710
G1 X112.150 Y112.150 E3.71065
G1 X87.949 Y112.150 E4.61053
G1 X87.850 Y112.150 E4.61420
G1 X89.010 Y111.603 F7800.000
G1 X88.397 Y110.990 F986.915 E4.66176
G1 X89.103 Y110.327 E4.71483
G1 X88.397 Y109.620 E4.76959
G1 X89.103 Y108.958 E4.82267
G1 X88.397 Y108.251 E4.87743
G1 X89.103 Y107.588 E4.93050
G1 X88.397 Y106.882 E4.98526
G1 X89.103 Y106.219 E5.03834
G1 X88.397 Y105.512 E5.09310
G1 X89.103 Y104.850 E5.14617
G1 X88.397 Y104.143 E5.20093
G1 X89.103 Y103.481 E5.25401
G1 X88.397 Y102.774 E5.30877
G1 X89.103 Y102.111 E5.36185
G1 X88.397 Y101.405 E5.41661
G1 X89.103 Y100.742 E5.46968
G1 X88.397 Y100.035 E5.52444
G1 X89.103 Y99.373 E5.57752
G1 X88.397 Y98.666 E5.63228
G1 X89.103 Y98.004 E5.68535
G1 X88.397 Y97.297 E5.74011
G1 X89.103 Y96.634 E5.79319
G1 X88.397 Y95.928 E5.84795
G1 X89.103 Y95.265 E5.90102
G1 X88.397 Y94.558 E5.95578
G1 X89.103 Y93.896 E6.00886
G1 X88.397 Y93.189 E6.06362
G1 X89.103 Y92.527 E6.11669
G1 X88.397 Y91.820 E6.17145
G1 X89.103 Y91.157 E6.22453
G1 X88.397 Y90.451 E6.27929
G1 X89.103 Y89.788 E6.33237
G1 X88.397 Y89.081 E6.38712
G1 X89.081 Y88.397 E6.44017
G1 X89.788 Y89.103 E6.49493
G1 X90.451 Y88.397 E6.54801
G1 X91.157 Y89.103 E6.60277
G1 X91.820 Y88.397 E6.65584
G1 X92.527 Y89.103 E6.71060
G1 X93.189 Y88.397 E6.76368
G1 X93.896 Y89.103 E6.81844
G1 X94.558 Y88.397 E6.87152
G1 X95.265 Y89.103 E6.92627
G1 X95.928 Y88.397 E6.97935
G1 X96.634 Y89.103 E7.03411
G1 X97.297 Y88.397 E7.08719
G1 X98.004 Y89.103 E7.14195
G1 X98.666 Y88.397 E7.19502
G1 X99.373 Y89.103 E7.24978
G1 X100.035 Y88.397 E7.30286
G1 X100.742 Y89.103 E7.35762
G1 X101.405 Y88.397 E7.41069
G1 X102.111 Y89.103 E7.46545
G1 X102.774 Y88.397 E7.51853
G1 X103.481 Y89.103 E7.57329
G1 X104.143 Y88.397 E7.62636
G1 X104.850 Y89.103 E7.68112
G1 X105.513 Y88.397 E7.73420
G1 X106.219 Y89.103 E7.78896
G1 X106.882 Y88.397 E7.84204
G1 X107.588 Y89.103 E7.89679
G1 X108.251 Y88.397 E7.94987
G1 X108.958 Y89.103 E8.00463
G1 X109.620 Y88.397 E8.05771
G1 X110.327 Y89.103 E8.11247
G1 X110.897 Y89.673 F7800.000
G1 X111.603 Y90.380 F986.915 E8.16722
G1 X110.897 Y91.042 E8.22030
G1 X111.603 Y91.749 E8.27506
G1 X110.897 Y92.412 E8.32814
G1 X111.603 Y93.118 E8.38290
G1 X110.897 Y93.781 E8.43597
G1 X111.603 Y94.487 E8.49073
G1 X110.897 Y95.150 E8.54381
G1 X111.603 Y95.857 E8.59857
G1 X110.897 Y96.519 E8.65164
G1 X111.603 Y97.226 E8.70640
G1 X110.897 Y97.889 E8.75948
G1 X111.603 Y98.595 E8.81424
G1 X110.897 Y99.258 E8.86731
G1 X111.603 Y99.965 E8.92207
G1 X110.897 Y100.627 E8.97515
G1 X111.603 Y101.334 E9.02991
G1 X110.897 Y101.996 E9.08299
G1 X111.603 Y102.703 E9.13775
G1 X110.897 Y103.366 E9.19082
G1 X111.603 Y104.072 E9.24558
G1 X110.897 Y104.735 E9.29866
G1 X111.603 Y105.442 E9.35342
G1 X110.897 Y106.104 E9.40649
G1 X111.603 Y106.811 E9.46125
G1 X110.897 Y107.473 E9.51433
G1 X111.603 Y108.180 E9.56909
G1 X110.897 Y108.843 E9.62216
G1 X111.603 Y109.549 E9.67692
G1 X110.897 Y110.212 E9.73000
G1 X111.603 Y110.919 E9.78476
G1 X110.919 Y111.603 E9.83781
G1 X110.212 Y110.897 E9.89257
G1 X109.549 Y111.603 E9.94564
G1 X108.843 Y110.897 E10.00040
G1 X108.180 Y111.603 E10.05348
G1 X107.473 Y110.897 E10.10824
G1 X106.811 Y111.603 E10.16131
G1 X106.104 Y110.897 E10.21607
G1 X105.442 Y111.603 E10.26915
G1 X104.735 Y110.897 E10.32391
G1 X104.072 Y111.603 E10.37699
G1 X103.366 Y110.897 E10.43174
G1 X102.703 Y111.603 E10.48482
G1 X101.996 Y110.897 E10.53958
G1 X101.334 Y111.603 E10.59266
G1 X100.627 Y110.897 E10.64742
G1 X99.965 Y111.603 E10.70049
G1 X99.258 Y110.897 E10.75525
G1 X98.595 Y111.603 E10.80833
G1 X97.889 Y110.897 E10.86309
G1 X97.226 Y111.603 E10.91616
G1 X96.519 Y110.897 E10.97092
G1 X95.857 Y111.603 E11.02400
G1 X95.150 Y110.897 E11.07876
