; generated by Slic3r 0.9.8 on 2013-10-23 at 15:53:37

; layer_height = 0.4
; perimeters = 3
; top_solid_layers = 3
; bottom_solid_layers = 3
; fill_density = 0.4
; perimeter_speed = 30
; infill_speed = 60
; travel_speed = 130
; scale = 1
; nozzle_diameter = 0.5
; filament_diameter = 3
; extrusion_multiplier = 1
; perimeters extrusion width = 0.80mm
; infill extrusion width = 0.53mm
; first layer extrusion width = 0.80mm

M107
M104 S200 ; set temperature
G28 ; home all axes
M109 S200 ; wait for temperature to be reached
G90 ; use absolute coordinates
G21 ; set units to millimeters
G92 E0
M82 ; use absolute distances for extrusion
G1 F1800.000 E-1.00000
G92 E0
G1 Z0.400 F7800.000
G1 X116.860 Y116.860
G1 F1800.000 E1.00000
G1 X115.840 Y117.700 F540.000 E1.05501
G1 X114.680 Y118.320 E1.10976
G1 X113.410 Y118.710 E1.16506
G1 X112.100 Y118.840 E1.21986
G1 X87.900 Y118.840 E2.22725
G1 X86.590 Y118.710 E2.28205
G1 X85.320 Y118.320 E2.33735
G1 X84.160 Y117.700 E2.39210
G1 X83.140 Y116.860 E2.44711
G1 X82.300 Y115.840 E2.50211
G1 X81.680 Y114.680 E2.55687
G1 X81.290 Y113.410 E2.61217
G1 X81.160 Y112.100 E2.66697
G1 X81.160 Y87.900 E3.67436
G1 X81.290 Y86.590 E3.72916
G1 X81.680 Y85.320 E3.78446
G1 X82.300 Y84.160 E3.83921
G1 X83.140 Y83.140 E3.89422
G1 X84.160 Y82.300 E3.94922
G1 X85.320 Y81.680 E4.00398
G1 X86.590 Y81.290 E4.05928
G1 X87.900 Y81.160 E4.11408
G1 X112.100 Y81.160 E5.12147
G1 X113.410 Y81.290 E5.17627
G1 X114.680 Y81.680 E5.23157
G1 X115.840 Y82.300 E5.28632
G1 X116.860 Y83.140 E5.34133
G1 X117.700 Y84.160 E5.39633
G1 X118.320 Y85.320 E5.45108
G1 X118.710 Y86.590 E5.50639
G1 X118.840 Y87.900 E5.56119
G1 X118.840 Y112.100 E6.56857
G1 X118.710 Y113.410 E6.62337
G1 X118.320 Y114.680 E6.67868
G1 X117.700 Y115.840 E6.73343
G1 X116.930 Y116.775 E6.78384
G1 X116.860 Y116.860 E6.78843
G1 F1800.000 E5.78843
G92 E0
G1 X110.400 Y110.400 F7800.000
G1 F1800.000 E1.00000
G1 X89.600 Y110.400 F540.000 E1.86585
G1 X89.600 Y89.600 E2.73171
G1 X110.400 Y89.600 E3.59756
G1 X110.400 Y110.290 E4.45882
G1 X110.400 Y110.400 E4.46341
G1 X110.400 Y111.136 F7800.000
G1 F1800.000 E3.46341
G92 E0
G1 X87.900 Y112.100 F7800.000
G1 F1800.000 E1.00000
G1 X87.900 Y87.900 F540.000 E2.00739
G1 X112.100 Y87.900 E3.01477
G1 X112.100 Y112.100 E4.02216
G1 X88.010 Y112.100 E5.02495
G1 X87.900 Y112.100 E5.02955
G1 X88.902 Y111.566 F7800.000
G1 X88.434 Y111.098 F360.000 E5.05748
G1 X89.066 Y110.677 E5.08955
G1 X88.434 Y110.044 E5.12730
G1 X89.066 Y109.622 E5.15936
G1 X88.434 Y108.990 E5.19711
G1 X89.066 Y108.568 E5.22917
G1 X88.434 Y107.936 E5.26692
G1 X89.066 Y107.514 E5.29899
G1 X88.434 Y106.881 E5.33673
G1 X89.066 Y106.460 E5.36880
G1 X88.434 Y105.827 E5.40654
G1 X89.066 Y105.406 E5.43861
G1 X88.434 Y104.773 E5.47635
G1 X89.066 Y104.352 E5.50842
G1 X88.434 Y103.719 E5.54616
G1 X89.066 Y103.297 E5.57823
G1 X88.434 Y102.665 E5.61598
G1 X89.066 Y102.243 E5.64804
G1 X88.434 Y101.611 E5.68579
G1 X89.066 Y101.189 E5.71785
G1 X88.434 Y100.556 E5.75560
G1 X89.066 Y100.135 E5.78767
G1 X88.434 Y99.502 E5.82541
G1 X89.066 Y99.081 E5.85748
G1 X88.434 Y98.448 E5.89522
G1 X89.066 Y98.027 E5.92729
G1 X88.434 Y97.394 E5.96503
G1 X89.066 Y96.973 E5.99710
G1 X88.434 Y96.340 E6.03484
G1 X89.066 Y95.918 E6.06691
G1 X88.434 Y95.286 E6.10466
G1 X89.066 Y94.864 E6.13672
G1 X88.434 Y94.231 E6.17447
G1 X89.066 Y93.810 E6.20654
G1 X88.434 Y93.177 E6.24428
G1 X89.066 Y92.756 E6.27635
G1 X88.434 Y92.123 E6.31409
G1 X89.066 Y91.702 E6.34616
G1 X88.434 Y91.069 E6.38390
G1 X89.066 Y90.648 E6.41597
G1 X88.434 Y90.015 E6.45371
G1 X89.066 Y89.593 E6.48578
G1 X88.434 Y88.961 E6.52353
G1 X88.961 Y88.434 E6.55497
G1 X89.593 Y89.066 E6.59271
G1 X90.015 Y88.434 E6.62478
G1 X90.648 Y89.066 E6.66252
G1 X91.069 Y88.434 E6.69459
G1 X91.702 Y89.066 E6.73233
G1 X92.123 Y88.434 E6.76440
G1 X92.756 Y89.066 E6.80215
G1 X93.177 Y88.434 E6.83421
G1 X93.810 Y89.066 E6.87196
G1 X94.232 Y88.434 E6.90402
G1 X94.864 Y89.066 E6.94177
G1 X95.286 Y88.434 E6.97384
G1 X95.918 Y89.066 E7.01158
G1 X96.340 Y88.434 E7.04365
G1 X96.973 Y89.066 E7.08139
G1 X97.394 Y88.434 E7.11346
G1 X98.027 Y89.066 E7.15120
G1 X98.448 Y88.434 E7.18327
G1 X99.081 Y89.066 E7.22101
G1 X99.502 Y88.434 E7.25308
G1 X100.135 Y89.066 E7.29083
G1 X100.556 Y88.434 E7.32289
G1 X101.189 Y89.066 E7.36064
G1 X101.611 Y88.434 E7.39270
G1 X102.243 Y89.066 E7.43045
G1 X102.665 Y88.434 E7.46252
G1 X103.298 Y89.066 E7.50026
G1 X103.719 Y88.434 E7.53233
G1 X104.352 Y89.066 E7.57007
G1 X104.773 Y88.434 E7.60214
G1 X105.406 Y89.066 E7.63988
G1 X105.827 Y88.434 E7.67195
G1 X106.460 Y89.066 E7.70969
G1 X106.881 Y88.434 E7.74176
G1 X107.514 Y89.066 E7.77951
G1 X107.936 Y88.434 E7.81157
G1 X108.568 Y89.066 E7.84932
G1 X108.990 Y88.434 E7.88138
G1 X109.622 Y89.066 E7.91913
G1 X110.044 Y88.434 E7.95120
G1 X110.677 Y89.066 E7.98894
G1 X110.934 Y89.323 F7800.000
G1 X111.566 Y89.956 F360.000 E8.02668
G1 X110.934 Y90.378 E8.05875
G1 X111.566 Y91.010 E8.09650
G1 X110.934 Y91.432 E8.12856
G1 X111.566 Y92.064 E8.16631
G1 X110.934 Y92.486 E8.19837
G1 X111.566 Y93.119 E8.23612
G1 X110.934 Y93.540 E8.26819
G1 X111.566 Y94.173 E8.30593
G1 X110.934 Y94.594 E8.33800
G1 X111.566 Y95.227 E8.37574
G1 X110.934 Y95.648 E8.40781
G1 X111.566 Y96.281 E8.44555
G1 X110.934 Y96.702 E8.47762
G1 X111.566 Y97.335 E8.51537
G1 X110.934 Y97.757 E8.54743
G1 X111.566 Y98.389 E8.58518
G1 X110.934 Y98.811 E8.61724
G1 X111.566 Y99.444 E8.65499
G1 X110.934 Y99.865 E8.68706
G1 X111.566 Y100.498 E8.72480
G1 X110.934 Y100.919 E8.75687
G1 X111.566 Y101.552 E8.79461
G1 X110.934 Y101.973 E8.82668
G1 X111.566 Y102.606 E8.86442
G1 X110.934 Y103.027 E8.89649
G1 X111.566 Y103.660 E8.93423
G1 X110.934 Y104.082 E8.96630
G1 X111.566 Y104.714 E9.00405
G1 X110.934 Y105.136 E9.03611
G1 X111.566 Y105.768 E9.07386
G1 X110.934 Y106.190 E9.10592
G1 X111.566 Y106.823 E9.14367
G1 X110.934 Y107.244 E9.17574
G1 X111.566 Y107.877 E9.21348
G1 X110.934 Y108.298 E9.24555
G1 X111.566 Y108.931 E9.28329
G1 X110.934 Y109.352 E9.31536
G1 X111.566 Y109.985 E9.35310
G1 X110.934 Y110.407 E9.38517
G1 X111.566 Y111.039 E9.42292
G1 X111.039 Y111.566 E9.45436
G1 X110.407 Y110.934 E9.49210
G1 X109.985 Y111.566 E9.52417
G1 X109.352 Y110.934 E9.56191
G1 X108.931 Y111.566 E9.59398
G1 X108.298 Y110.934 E9.63172
G1 X107.877 Y111.566 E9.66379
G1 X107.244 Y110.934 E9.70154
G1 X106.823 Y111.566 E9.73360
G1 X106.190 Y110.934 E9.77135
G1 X105.769 Y111.566 E9.80341
G1 X105.136 Y110.934 E9.84116
G1 X104.714 Y111.566 E9.87323
G1 X104.082 Y110.934 E9.91097
G1 X103.660 Y111.566 E9.94304
G1 X103.027 Y110.934 E9.98078
G1 X102.606 Y111.566 E10.01285
G1 X101.973 Y110.934 E10.05059
G1 X101.552 Y111.566 E10.08266
G1 X100.919 Y110.934 E10.12040
G1 X100.498 Y111.566 E10.15247
G1 X99.865 Y110.934 E10.19022
G1 X99.444 Y111.566 E10.22228
G1 X98.811 Y110.934 E10.26003
G1 X98.389 Y111.566 E10.29209
G1 X97.757 Y110.934 E10.32984
G1 X97.335 Y111.566 E10.36191
G1 X96.703 Y110.934 E10.39965
G1 X96.281 Y111.566 E10.43172
G1 X95.648 Y110.934 E10.46946
G1 X95.227 Y111.566 E10.50153
G1 X94.594 Y110.934 E10.53927
G1 X94.173 Y111.566 E10.57134
G1 X93.540 Y110.934 E10.60908
G1 X93.119 Y111.566 E10.64115
G1 X92.486 Y110.934 E10.67890
G1 X92.064 Y111.566 E10.71096
G1 X91.432 Y110.934 E10.74871
G1 X91.010 Y111.566 E10.78077
G1 X90.378 Y110.934 E10.81852
G1 X89.956 Y111.566 E10.85059
G1 X89.323 Y110.934 E10.88833
G1 F1800.000 E9.88833
G92 E0
G1 X111.566 Y88.902 F7800.000
G1 F1800.000 E1.00000
G1 X111.098 Y88.434 F360.000 E1.02794
M106 S255
G1 F1800.000 E0.02794
G92 E0
G1 Z0.800 F7800.000
G1 X110.400 Y89.600
G1 F1800.000 E1.00000
G1 X110.400 Y110.400 F1557.349 E1.86585
G1 X89.600 Y110.400 E2.73171
G1 X89.600 Y89.600 E3.59756
G1 X110.290 Y89.600 E4.45882
G1 X110.400 Y89.600 E4.46341
G1 X111.136 Y89.600 F7800.000
G1 X112.100 Y87.900
G1 X112.100 Y112.100 F1557.349 E5.47080
G1 X87.900 Y112.100 E6.47818
G1 X87.900 Y87.900 E7.48557
G1 X111.990 Y87.900 E8.48836
G1 X112.100 Y87.900 E8.49296
G1 F1800.000 E7.49296
G92 E0
G1 X111.566 Y111.098 F7800.000
G1 F1800.000 E1.00000
G1 X111.098 Y111.566 F1038.233 E1.02794
G1 X110.677 Y110.934 E1.06001
G1 X110.044 Y111.566 E1.09775
G1 X109.622 Y110.934 E1.12982
G1 X108.990 Y111.566 E1.16756
G1 X108.568 Y110.934 E1.19963
G1 X107.936 Y111.566 E1.23737
G1 X107.514 Y110.934 E1.26944
G1 X106.881 Y111.566 E1.30718
G1 X106.460 Y110.934 E1.33925
G1 X105.827 Y111.566 E1.37700
G1 X105.406 Y110.934 E1.40906
G1 X104.773 Y111.566 E1.44681
G1 X104.352 Y110.934 E1.47887
G1 X103.719 Y111.566 E1.51662
G1 X103.297 Y110.934 E1.54869
G1 X102.665 Y111.566 E1.58643
G1 X102.243 Y110.934 E1.61850
G1 X101.611 Y111.566 E1.65624
G1 X101.189 Y110.934 E1.68831
G1 X100.556 Y111.566 E1.72605
G1 X100.135 Y110.934 E1.75812
G1 X99.502 Y111.566 E1.79586
G1 X99.081 Y110.934 E1.82793
G1 X98.448 Y111.566 E1.86568
G1 X98.027 Y110.934 E1.89774
G1 X97.394 Y111.566 E1.93549
G1 X96.973 Y110.934 E1.96755
G1 X96.340 Y111.566 E2.00530
G1 X95.918 Y110.934 E2.03737
G1 X95.286 Y111.566 E2.07511
G1 X94.864 Y110.934 E2.10718
G1 X94.231 Y111.566 E2.14492
G1 X93.810 Y110.934 E2.17699
G1 X93.177 Y111.566 E2.21473
G1 X92.756 Y110.934 E2.24680
G1 X92.123 Y111.566 E2.28454
G1 X91.702 Y110.934 E2.31661
G1 X91.069 Y111.566 E2.35436
G1 X90.648 Y110.934 E2.38642
G1 X90.015 Y111.566 E2.42417
G1 X89.593 Y110.934 E2.45623
G1 X88.961 Y111.566 E2.49398
G1 X88.434 Y111.039 E2.52542
G1 X89.066 Y110.407 E2.56316
G1 X88.434 Y109.985 E2.59523
G1 X89.066 Y109.352 E2.63298
G1 X88.434 Y108.931 E2.66504
G1 X89.066 Y108.298 E2.70279
G1 X88.434 Y107.877 E2.73486
G1 X89.066 Y107.244 E2.77260
G1 X88.434 Y106.823 E2.80467
G1 X89.066 Y106.190 E2.84241
G1 X88.434 Y105.768 E2.87448
G1 X89.066 Y105.136 E2.91222
G1 X88.434 Y104.714 E2.94429
G1 X89.066 Y104.082 E2.98203
G1 X88.434 Y103.660 E3.01410
G1 X89.066 Y103.027 E3.05185
G1 X88.434 Y102.606 E3.08391
G1 X89.066 Y101.973 E3.12166
G1 X88.434 Y101.552 E3.15372
G1 X89.066 Y100.919 E3.19147
G1 X88.434 Y100.498 E3.22354
G1 X89.066 Y99.865 E3.26128
G1 X88.434 Y99.444 E3.29335
G1 X89.066 Y98.811 E3.33109
G1 X88.434 Y98.389 E3.36316
G1 X89.066 Y97.757 E3.40090
G1 X88.434 Y97.335 E3.43297
G1 X89.066 Y96.702 E3.47071
G1 X88.434 Y96.281 E3.50278
G1 X89.066 Y95.648 E3.54053
G1 X88.434 Y95.227 E3.57259
G1 X89.066 Y94.594 E3.61034
G1 X88.434 Y94.173 E3.64240
G1 X89.066 Y93.540 E3.68015
G1 X88.434 Y93.119 E3.71222
G1 X89.066 Y92.486 E3.74996
G1 X88.434 Y92.064 E3.78203
G1 X89.066 Y91.432 E3.81977
G1 X88.434 Y91.010 E3.85184
G1 X89.066 Y90.378 E3.88958
G1 X88.434 Y89.956 E3.92165
G1 X89.066 Y89.323 E3.95939
G1 X89.323 Y89.066 F7800.000
G1 X89.956 Y88.434 F1038.233 E3.99714
G1 X90.378 Y89.066 E4.02921
G1 X91.010 Y88.434 E4.06695
G1 X91.432 Y89.066 E4.09902
G1 X92.064 Y88.434 E4.13676
G1 X92.486 Y89.066 E4.16883
G1 X93.119 Y88.434 E4.20657
G1 X93.540 Y89.066 E4.23864
G1 X94.173 Y88.434 E4.27638
G1 X94.594 Y89.066 E4.30845
G1 X95.227 Y88.434 E4.34620
G1 X95.648 Y89.066 E4.37826
G1 X96.281 Y88.434 E4.41601
G1 X96.702 Y89.066 E4.44807
G1 X97.335 Y88.434 E4.48582
G1 X97.757 Y89.066 E4.51789
G1 X98.389 Y88.434 E4.55563
G1 X98.811 Y89.066 E4.58770
G1 X99.444 Y88.434 E4.62544
G1 X99.865 Y89.066 E4.65751
G1 X100.498 Y88.434 E4.69525
G1 X100.919 Y89.066 E4.72732
G1 X101.552 Y88.434 E4.76507
G1 X101.973 Y89.066 E4.79713
G1 X102.606 Y88.434 E4.83488
G1 X103.027 Y89.066 E4.86694
G1 X103.660 Y88.434 E4.90469
G1 X104.082 Y89.066 E4.93676
G1 X104.714 Y88.434 E4.97450
G1 X105.136 Y89.066 E5.00657
G1 X105.768 Y88.434 E5.04431
G1 X106.190 Y89.066 E5.07638
G1 X106.823 Y88.434 E5.11412
G1 X107.244 Y89.066 E5.14619
G1 X107.877 Y88.434 E5.18393
G1 X108.298 Y89.066 E5.21600
G1 X108.931 Y88.434 E5.25375
G1 X109.352 Y89.066 E5.28581
G1 X109.985 Y88.434 E5.32356
G1 X110.407 Y89.066 E5.35562
G1 X111.039 Y88.434 E5.39337
G1 X111.566 Y88.961 E5.42481
G1 X110.934 Y89.593 E5.46255
G1 X111.566 Y90.015 E5.49462
G1 X110.934 Y90.648 E5.53237
G1 X111.566 Y91.069 E5.56443
G1 X110.934 Y91.702 E5.60218
G1 X111.566 Y92.123 E5.63425
G1 X110.934 Y92.756 E5.67199
G1 X111.566 Y93.177 E5.70406
G1 X110.934 Y93.810 E5.74180
G1 X111.566 Y94.231 E5.77387
G1 X110.934 Y94.864 E5.81161
G1 X111.566 Y95.286 E5.84368
G1 X110.934 Y95.918 E5.88142
G1 X111.566 Y96.340 E5.91349
G1 X110.934 Y96.973 E5.95124
G1 X111.566 Y97.394 E5.98330
G1 X110.934 Y98.027 E6.02105
G1 X111.566 Y98.448 E6.05311
G1 X110.934 Y99.081 E6.09086
G1 X111.566 Y99.502 E6.12293
G1 X110.934 Y100.135 E6.16067
G1 X111.566 Y100.556 E6.19274
G1 X110.934 Y101.189 E6.23048
G1 X111.566 Y101.611 E6.26255
G1 X110.934 Y102.243 E6.30029
G1 X111.566 Y102.665 E6.33236
G1 X110.934 Y103.297 E6.37010
G1 X111.566 Y103.719 E6.40217
G1 X110.934 Y104.352 E6.43992
G1 X111.566 Y104.773 E6.47198
G1 X110.934 Y105.406 E6.50973
G1 X111.566 Y105.827 E6.54179
G1 X110.934 Y106.460 E6.57954
G1 X111.566 Y106.881 E6.61161
G1 X110.934 Y107.514 E6.64935
G1 X111.566 Y107.936 E6.68142
G1 X110.934 Y108.568 E6.71916
G1 X111.566 Y108.990 E6.75123
G1 X110.934 Y109.622 E6.78897
G1 X111.566 Y110.044 E6.82104
G1 X110.934 Y110.677 E6.85878
G1 F1800.000 E5.85878
G92 E0
G1 X88.902 Y88.434 F7800.000
G1 F1800.000 E1.00000
G1 X88.434 Y88.902 F1038.233 E1.02794
G1 F1800.000 E0.02794
G92 E0
G1 Z1.200 F7800.000
G1 X89.600 Y89.600
G1 F1800.000 E1.00000
G1 X110.400 Y89.600 F1557.349 E1.86585
G1 X110.400 Y110.400 E2.73171
G1 X89.600 Y110.400 E3.59756
G1 X89.600 Y89.710 E4.45882
G1 X89.600 Y89.600 E4.46341
G1 X89.600 Y88.864 F7800.000
G1 F1800.000 E3.46341
G92 E0
G1 X87.900 Y112.100 F7800.000
G1 F1800.000 E1.00000
G1 X87.900 Y87.900 F1557.349 E2.00739
G1 X112.100 Y87.900 E3.01477
G1 X112.100 Y112.100 E4.02216
G1 X88.010 Y112.100 E5.02495
G1 X87.900 Y112.100 E5.02955
G1 X88.902 Y111.566 F7800.000
G1 X88.434 Y111.098 F1038.233 E5.05748
G1 X89.066 Y110.677 E5.08955
G1 X88.434 Y110.044 E5.12730
G1 X89.066 Y109.622 E5.15936
G1 X88.434 Y108.990 E5.19711
G1 X89.066 Y108.568 E5.22917
G1 X88.434 Y107.936 E5.26692
G1 X89.066 Y107.514 E5.29899
G1 X88.434 Y106.881 E5.33673
G1 X89.066 Y106.460 E5.36880
G1 X88.434 Y105.827 E5.40654
G1 X89.066 Y105.406 E5.43861
G1 X88.434 Y104.773 E5.47635
G1 X89.066 Y104.352 E5.50842
G1 X88.434 Y103.719 E5.54616
G1 X89.066 Y103.297 E5.57823
G1 X88.434 Y102.665 E5.61598
G1 X89.066 Y102.243 E5.64804
G1 X88.434 Y101.611 E5.68579
G1 X89.066 Y101.189 E5.71785
G1 X88.434 Y100.556 E5.75560
G1 X89.066 Y100.135 E5.78767
G1 X88.434 Y99.502 E5.82541
G1 X89.066 Y99.081 E5.85748
G1 X88.434 Y98.448 E5.89522
G1 X89.066 Y98.027 E5.92729
G1 X88.434 Y97.394 E5.96503
G1 X89.066 Y96.973 E5.99710
G1 X88.434 Y96.340 E6.03484
G1 X89.066 Y95.918 E6.06691
G1 X88.434 Y95.286 E6.10466
G1 X89.066 Y94.864 E6.13672
G1 X88.434 Y94.231 E6.17447
G1 X89.066 Y93.810 E6.20654
G1 X88.434 Y93.177 E6.24428
G1 X89.066 Y92.756 E6.27635
G1 X88.434 Y92.123 E6.31409
G1 X89.066 Y91.702 E6.34616
G1 X88.434 Y91.069 E6.38390
G1 X89.066 Y90.648 E6.41597
G1 X88.434 Y90.015 E6.45371
G1 X89.066 Y89.593 E6.48578
G1 X88.434 Y88.961 E6.52353
G1 X88.961 Y88.434 E6.55497
G1 X89.593 Y89.066 E6.59271
G1 X90.015 Y88.434 E6.62478
G1 X90.648 Y89.066 E6.66252
G1 X91.069 Y88.434 E6.69459
G1 X91.702 Y89.066 E6.73233
G1 X92.123 Y88.434 E6.76440
G1 X92.756 Y89.066 E6.80215
G1 X93.177 Y88.434 E6.83421
G1 X93.810 Y89.066 E6.87196
G1 X94.232 Y88.434 E6.90402
G1 X94.864 Y89.066 E6.94177
G1 X95.286 Y88.434 E6.97384
G1 X95.918 Y89.066 E7.01158
G1 X96.340 Y88.434 E7.04365
G1 X96.973 Y89.066 E7.08139
G1 X97.394 Y88.434 E7.11346
G1 X98.027 Y89.066 E7.15120
G1 X98.448 Y88.434 E7.18327
G1 X99.081 Y89.066 E7.22101
G1 X99.502 Y88.434 E7.25308
G1 X100.135 Y89.066 E7.29083
G1 X100.556 Y88.434 E7.32289
G1 X101.189 Y89.066 E7.36064
G1 X101.611 Y88.434 E7.39270
G1 X102.243 Y89.066 E7.43045
G1 X102.665 Y88.434 E7.46252
G1 X103.298 Y89.066 E7.50026
G1 X103.719 Y88.434 E7.53233
G1 X104.352 Y89.066 E7.57007
G1 X104.773 Y88.434 E7.60214
G1 X105.406 Y89.066 E7.63988
G1 X105.827 Y88.434 E7.67195
G1 X106.460 Y89.066 E7.70969
G1 X106.881 Y88.434 E7.74176
G1 X107.514 Y89.066 E7.77951
G1 X107.936 Y88.434 E7.81157
G1 X108.568 Y89.066 E7.84932
G1 X108.990 Y88.434 E7.88138
G1 X109.622 Y89.066 E7.91913
G1 X110.044 Y88.434 E7.95120
G1 X110.677 Y89.066 E7.98894
G1 X110.934 Y89.323 F7800.000
