; generated by Slic3r 0.9.8 on 2013-10-23 at 15:53:49

; layer_height = 0.4
; perimeters = 3
; top_solid_layers = 3
; bottom_solid_layers = 3
; fill_density = 0.4
; perimeter_speed = 30
; infill_speed = 60
; travel_speed = 130
; scale = 1
; nozzle_diameter = 0.5
; filament_diameter = 3
; extrusion_multiplier = 1
; perimeters extrusion width = 0.90mm
; infill extrusion width = 0.53mm
; first layer extrusion width = 0.80mm

M107
M104 S200 ; set temperature
G28 ; home all axes
M109 S200 ; wait for temperature to be reached
G90 ; use absolute coordinates
G21 ; set units to millimeters
G92 E0
M82 ; use absolute distances for extrusion
G1 F1800.000 E-1.00000
G92 E0
G1 Z0.400 F7800.000
G1 X116.860 Y116.860
G1 F1800.000 E1.00000
G1 X115.840 Y117.700 F540.000 E1.05501
G1 X114.680 Y118.320 E1.10976
G1 X113.410 Y118.710 E1.16506
G1 X112.100 Y118.840 E1.21986
G1 X87.900 Y118.840 E2.22725
G1 X86.590 Y118.710 E2.28205
G1 X85.320 Y118.320 E2.33735
G1 X84.160 Y117.700 E2.39210
G1 X83.140 Y116.860 E2.44711
G1 X82.300 Y115.840 E2.50211
G1 X81.680 Y114.680 E2.55687
G1 X81.290 Y113.410 E2.61217
G1 X81.160 Y112.100 E2.66697
G1 X81.160 Y87.900 E3.67436
G1 X81.290 Y86.590 E3.72916
G1 X81.680 Y85.320 E3.78446
G1 X82.300 Y84.160 E3.83921
G1 X83.140 Y83.140 E3.89422
G1 X84.160 Y82.300 E3.94922
G1 X85.320 Y81.680 E4.00398
G1 X86.590 Y81.290 E4.05928
G1 X87.900 Y81.160 E4.11408
G1 X112.100 Y81.160 E5.12147
G1 X113.410 Y81.290 E5.17627
G1 X114.680 Y81.680 E5.23157
G1 X115.840 Y82.300 E5.28632
G1 X116.860 Y83.140 E5.34133
G1 X117.700 Y84.160 E5.39633
G1 X118.320 Y85.320 E5.45108
G1 X118.710 Y86.590 E5.50639
G1 X118.840 Y87.900 E5.56119
G1 X118.840 Y112.100 E6.56857
G1 X118.710 Y113.410 E6.62337
G1 X118.320 Y114.680 E6.67868
G1 X117.700 Y115.840 E6.73343
G1 X116.930 Y116.775 E6.78384
G1 X116.860 Y116.860 E6.78843
G1 F1800.000 E5.78843
G92 E0
G1 X110.400 Y110.400 F7800.000
G1 F1800.000 E1.00000
G1 X89.600 Y110.400 F540.000 E1.86585
G1 X89.600 Y89.600 E2.73171
G1 X110.400 Y89.600 E3.59756
G1 X110.400 Y110.290 E4.45882
G1 X110.400 Y110.400 E4.46341
G1 X110.400 Y111.136 F7800.000
G1 F1800.000 E3.46341
G92 E0
G1 X87.900 Y87.900 F7800.000
G1 F1800.000 E1.00000
G1 X112.100 Y87.900 F540.000 E2.00739
G1 X112.100 Y112.100 E3.01477
G1 X87.900 Y112.100 E4.02216
G1 X87.900 Y88.010 E5.02495
G1 X87.900 Y87.900 E5.02955
G1 F1800.000 E4.02955
G92 E0
G1 X88.902 Y111.566 F7800.000
G1 F1800.000 E1.00000
G1 X88.434 Y111.098 F360.000 E1.02794
G1 X89.066 Y110.677 E1.06001
G1 X88.434 Y110.044 E1.09775
G1 X89.066 Y109.622 E1.12982
G1 X88.434 Y108.990 E1.16756
G1 X89.066 Y108.568 E1.19963
G1 X88.434 Y107.936 E1.23737
G1 X89.066 Y107.514 E1.26944
G1 X88.434 Y106.881 E1.30718
G1 X89.066 Y106.460 E1.33925
G1 X88.434 Y105.827 E1.37700
G1 X89.066 Y105.406 E1.40906
G1 X88.434 Y104.773 E1.44681
G1 X89.066 Y104.352 E1.47887
G1 X88.434 Y103.719 E1.51662
G1 X89.066 Y103.297 E1.54869
G1 X88.434 Y102.665 E1.58643
G1 X89.066 Y102.243 E1.61850
G1 X88.434 Y101.611 E1.65624
G1 X89.066 Y101.189 E1.68831
G1 X88.434 Y100.556 E1.72605
G1 X89.066 Y100.135 E1.75812
G1 X88.434 Y99.502 E1.79586
G1 X89.066 Y99.081 E1.82793
G1 X88.434 Y98.448 E1.86568
G1 X89.066 Y98.027 E1.89774
G1 X88.434 Y97.394 E1.93549
G1 X89.066 Y96.973 E1.96755
G1 X88.434 Y96.340 E2.00530
G1 X89.066 Y95.918 E2.03737
G1 X88.434 Y95.286 E2.07511
G1 X89.066 Y94.864 E2.10718
G1 X88.434 Y94.231 E2.14492
G1 X89.066 Y93.810 E2.17699
G1 X88.434 Y93.177 E2.21473
G1 X89.066 Y92.756 E2.24680
G1 X88.434 Y92.123 E2.28454
G1 X89.066 Y91.702 E2.31661
G1 X88.434 Y91.069 E2.35436
G1 X89.066 Y90.648 E2.38642
G1 X88.434 Y90.015 E2.42417
G1 X89.066 Y89.593 E2.45623
G1 X88.434 Y88.961 E2.49398
G1 X88.961 Y88.434 E2.52542
G1 X89.593 Y89.066 E2.56316
G1 X90.015 Y88.434 E2.59523
G1 X90.648 Y89.066 E2.63298
G1 X91.069 Y88.434 E2.66504
G1 X91.702 Y89.066 E2.70279
G1 X92.123 Y88.434 E2.73486
G1 X92.756 Y89.066 E2.77260
G1 X93.177 Y88.434 E2.80467
G1 X93.810 Y89.066 E2.84241
G1 X94.232 Y88.434 E2.87448
G1 X94.864 Y89.066 E2.91222
G1 X95.286 Y88.434 E2.94429
G1 X95.918 Y89.066 E2.98203
G1 X96.340 Y88.434 E3.01410
G1 X96.973 Y89.066 E3.05185
G1 X97.394 Y88.434 E3.08391
G1 X98.027 Y89.066 E3.12166
G1 X98.448 Y88.434 E3.15372
G1 X99.081 Y89.066 E3.19147
G1 X99.502 Y88.434 E3.22354
G1 X100.135 Y89.066 E3.26128
G1 X100.556 Y88.434 E3.29335
G1 X101.189 Y89.066 E3.33109
G1 X101.611 Y88.434 E3.36316
G1 X102.243 Y89.066 E3.40090
G1 X102.665 Y88.434 E3.43297
G1 X103.298 Y89.066 E3.47071
G1 X103.719 Y88.434 E3.50278
G1 X104.352 Y89.066 E3.54053
G1 X104.773 Y88.434 E3.57259
G1 X105.406 Y89.066 E3.61034
G1 X105.827 Y88.434 E3.64240
G1 X106.460 Y89.066 E3.68015
G1 X106.881 Y88.434 E3.71222
G1 X107.514 Y89.066 E3.74996
G1 X107.936 Y88.434 E3.78203
G1 X108.568 Y89.066 E3.81977
G1 X108.990 Y88.434 E3.85184
G1 X109.622 Y89.066 E3.88958
G1 X110.044 Y88.434 E3.92165
G1 X110.677 Y89.066 E3.95939
G1 X110.934 Y89.323 F7800.000
G1 X111.566 Y89.956 F360.000 E3.99714
G1 X110.934 Y90.378 E4.02921
G1 X111.566 Y91.010 E4.06695
G1 X110.934 Y91.432 E4.09902
G1 X111.566 Y92.064 E4.13676
G1 X110.934 Y92.486 E4.16883
G1 X111.566 Y93.119 E4.20657
G1 X110.934 Y93.540 E4.23864
G1 X111.566 Y94.173 E4.27638
G1 X110.934 Y94.594 E4.30845
G1 X111.566 Y95.227 E4.34620
G1 X110.934 Y95.648 E4.37826
G1 X111.566 Y96.281 E4.41601
G1 X110.934 Y96.702 E4.44807
G1 X111.566 Y97.335 E4.48582
G1 X110.934 Y97.757 E4.51789
G1 X111.566 Y98.389 E4.55563
G1 X110.934 Y98.811 E4.58770
G1 X111.566 Y99.444 E4.62544
G1 X110.934 Y99.865 E4.65751
G1 X111.566 Y100.498 E4.69525
G1 X110.934 Y100.919 E4.72732
G1 X111.566 Y101.552 E4.76507
G1 X110.934 Y101.973 E4.79713
G1 X111.566 Y102.606 E4.83488
G1 X110.934 Y103.027 E4.86694
G1 X111.566 Y103.660 E4.90469
G1 X110.934 Y104.082 E4.93676
G1 X111.566 Y104.714 E4.97450
G1 X110.934 Y105.136 E5.00657
G1 X111.566 Y105.768 E5.04431
G1 X110.934 Y106.190 E5.07638
G1 X111.566 Y106.823 E5.11412
G1 X110.934 Y107.244 E5.14619
G1 X111.566 Y107.877 E5.18393
G1 X110.934 Y108.298 E5.21600
G1 X111.566 Y108.931 E5.25375
G1 X110.934 Y109.352 E5.28581
G1 X111.566 Y109.985 E5.32356
G1 X110.934 Y110.407 E5.35562
G1 X111.566 Y111.039 E5.39337
G1 X111.039 Y111.566 E5.42481
G1 X110.407 Y110.934 E5.46255
G1 X109.985 Y111.566 E5.49462
G1 X109.352 Y110.934 E5.53237
G1 X108.931 Y111.566 E5.56443
G1 X108.298 Y110.934 E5.60218
G1 X107.877 Y111.566 E5.63425
G1 X107.244 Y110.934 E5.67199
G1 X106.823 Y111.566 E5.70406
G1 X106.190 Y110.934 E5.74180
G1 X105.769 Y111.566 E5.77387
G1 X105.136 Y110.934 E5.81161
G1 X104.714 Y111.566 E5.84368
G1 X104.082 Y110.934 E5.88142
G1 X103.660 Y111.566 E5.91349
G1 X103.027 Y110.934 E5.95124
G1 X102.606 Y111.566 E5.98330
G1 X101.973 Y110.934 E6.02105
G1 X101.552 Y111.566 E6.05311
G1 X100.919 Y110.934 E6.09086
G1 X100.498 Y111.566 E6.12293
G1 X99.865 Y110.934 E6.16067
G1 X99.444 Y111.566 E6.19274
G1 X98.811 Y110.934 E6.23048
G1 X98.389 Y111.566 E6.26255
G1 X97.757 Y110.934 E6.30029
G1 X97.335 Y111.566 E6.33236
G1 X96.703 Y110.934 E6.37010
G1 X96.281 Y111.566 E6.40217
G1 X95.648 Y110.934 E6.43992
G1 X95.227 Y111.566 E6.47198
G1 X94.594 Y110.934 E6.50973
G1 X94.173 Y111.566 E6.54179
G1 X93.540 Y110.934 E6.57954
G1 X93.119 Y111.566 E6.61161
G1 X92.486 Y110.934 E6.64935
G1 X92.064 Y111.566 E6.68142
G1 X91.432 Y110.934 E6.71916
G1 X91.010 Y111.566 E6.75123
G1 X90.378 Y110.934 E6.78897
G1 X89.956 Y111.566 E6.82104
G1 X89.323 Y110.934 E6.85878
G1 F1800.000 E5.85878
G92 E0
G1 X111.566 Y88.902 F7800.000
G1 F1800.000 E1.00000
G1 X111.098 Y88.434 F360.000 E1.02794
M106 S249
G1 F1800.000 E0.02794
G92 E0
G1 Z0.800 F7800.000
G1 X110.450 Y89.550
G1 F1800.000 E1.00000
G1 X110.450 Y110.450 F1800.000 E1.96290
G1 X89.550 Y110.450 E2.92581
G1 X89.550 Y89.550 E3.88871
G1 X110.328 Y89.550 E4.84599
G1 X110.450 Y89.550 E4.85162
G1 X111.264 Y89.550 F7800.000
G1 F1800.000 E3.85162
G92 E0
G1 X87.950 Y112.050 F7800.000
G1 F1800.000 E1.00000
G1 X87.950 Y87.950 F1800.000 E2.11034
G1 X112.050 Y87.950 E3.22067
G1 X112.050 Y112.050 E4.33101
G1 X88.072 Y112.050 E5.43571
G1 X87.950 Y112.050 E5.44134
G1 F1800.000 E4.44134
G92 E0
G1 X111.565 Y111.271 F7800.000
G1 F1800.000 E1.00000
G1 X111.271 Y111.565 F1200.000 E1.01083
G1 X110.619 Y111.565 E1.02787
G1 X111.565 Y110.619 E1.06279
G1 X110.935 Y110.596 E1.07923
G1 X111.565 Y109.966 E1.10246
G1 X110.935 Y109.943 E1.11890
G1 X111.565 Y109.314 E1.14213
G1 X110.935 Y109.291 E1.15857
G1 X111.565 Y108.661 E1.18181
G1 X110.935 Y108.638 E1.19824
G1 X111.565 Y108.009 E1.22148
G1 X110.935 Y107.986 E1.23792
G1 X111.565 Y107.356 E1.26115
G1 X110.935 Y107.333 E1.27759
G1 X111.565 Y106.704 E1.30082
G1 X110.935 Y106.681 E1.31726
G1 X111.565 Y106.052 E1.34049
G1 X110.935 Y106.028 E1.35693
G1 X111.565 Y105.399 E1.38017
G1 X110.935 Y105.376 E1.39660
G1 X111.565 Y104.747 E1.41984
G1 X110.935 Y104.723 E1.43628
G1 X111.565 Y104.094 E1.45951
G1 X110.935 Y104.071 E1.47595
G1 X111.565 Y103.442 E1.49918
G1 X110.935 Y103.419 E1.51562
G1 X111.565 Y102.789 E1.53885
G1 X110.935 Y102.766 E1.55529
G1 X111.565 Y102.137 E1.57853
G1 X110.935 Y102.114 E1.59496
G1 X111.565 Y101.484 E1.61820
G1 X110.935 Y101.461 E1.63464
G1 X111.565 Y100.832 E1.65787
G1 X110.935 Y100.809 E1.67431
G1 X111.565 Y100.180 E1.69754
G1 X110.935 Y100.156 E1.71398
G1 X111.565 Y99.527 E1.73721
G1 X110.935 Y99.504 E1.75365
G1 X111.565 Y98.875 E1.77689
G1 X110.935 Y98.851 E1.79332
G1 X111.565 Y98.222 E1.81656
G1 X110.935 Y98.199 E1.83300
G1 X111.565 Y97.570 E1.85623
G1 X110.935 Y97.547 E1.87267
G1 X111.565 Y96.917 E1.89590
G1 X110.935 Y96.894 E1.91234
G1 X111.565 Y96.265 E1.93557
G1 X110.935 Y96.242 E1.95201
G1 X111.565 Y95.612 E1.97525
G1 X110.935 Y95.589 E1.99168
G1 X111.565 Y94.960 E2.01492
G1 X110.935 Y94.937 E2.03136
G1 X111.565 Y94.307 E2.05459
G1 X110.935 Y94.284 E2.07103
G1 X111.565 Y93.655 E2.09426
G1 X110.935 Y93.632 E2.11070
G1 X111.565 Y93.003 E2.13393
G1 X110.935 Y92.979 E2.15037
G1 X111.565 Y92.350 E2.17361
G1 X110.935 Y92.327 E2.19004
G1 X111.565 Y91.698 E2.21328
G1 X110.935 Y91.674 E2.22972
G1 X111.565 Y91.045 E2.25295
G1 X110.935 Y91.022 E2.26939
G1 X111.565 Y90.393 E2.29262
G1 X110.935 Y90.370 E2.30906
G1 X111.565 Y89.740 E2.33229
G1 X110.935 Y89.717 E2.34873
G1 X111.565 Y89.088 E2.37197
G1 X110.935 Y89.065 E2.38841
G1 X111.565 Y88.435 E2.41163
G1 X110.912 Y88.435 E2.42867
G1 X110.283 Y89.065 E2.45190
G1 X110.260 Y88.435 E2.46834
G1 X109.630 Y89.065 E2.49157
G1 X109.607 Y88.435 E2.50801
G1 X108.978 Y89.065 E2.53124
G1 X108.955 Y88.435 E2.54768
G1 X108.326 Y89.065 E2.57091
G1 X108.302 Y88.435 E2.58735
G1 X107.673 Y89.065 E2.61059
G1 X107.650 Y88.435 E2.62703
G1 X107.021 Y89.065 E2.65026
G1 X106.997 Y88.435 E2.66670
G1 X106.368 Y89.065 E2.68993
G1 X106.345 Y88.435 E2.70637
G1 X105.716 Y89.065 E2.72960
G1 X105.693 Y88.435 E2.74604
G1 X105.063 Y89.065 E2.76927
G1 X105.040 Y88.435 E2.78571
G1 X104.411 Y89.065 E2.80895
G1 X104.388 Y88.435 E2.82539
G1 X103.758 Y89.065 E2.84862
G1 X103.735 Y88.435 E2.86506
G1 X103.106 Y89.065 E2.88829
G1 X103.083 Y88.435 E2.90473
G1 X102.453 Y89.065 E2.92796
G1 X102.430 Y88.435 E2.94440
G1 X101.801 Y89.065 E2.96763
G1 X101.778 Y88.435 E2.98407
G1 X101.149 Y89.065 E3.00731
G1 X101.125 Y88.435 E3.02375
G1 X100.496 Y89.065 E3.04698
G1 X100.473 Y88.435 E3.06342
G1 X99.844 Y89.065 E3.08665
G1 X99.820 Y88.435 E3.10309
G1 X99.191 Y89.065 E3.12632
G1 X99.168 Y88.435 E3.14276
G1 X98.539 Y89.065 E3.16599
G1 X98.516 Y88.435 E3.18243
G1 X97.886 Y89.065 E3.20567
G1 X97.863 Y88.435 E3.22211
G1 X97.234 Y89.065 E3.24534
G1 X97.211 Y88.435 E3.26178
G1 X96.581 Y89.065 E3.28501
G1 X96.558 Y88.435 E3.30145
G1 X95.929 Y89.065 E3.32468
G1 X95.906 Y88.435 E3.34112
G1 X95.276 Y89.065 E3.36435
G1 X95.253 Y88.435 E3.38079
G1 X94.624 Y89.065 E3.40403
G1 X94.601 Y88.435 E3.42047
G1 X93.972 Y89.065 E3.44370
G1 X93.948 Y88.435 E3.46014
G1 X93.319 Y89.065 E3.48337
G1 X93.296 Y88.435 E3.49981
G1 X92.667 Y89.065 E3.52304
G1 X92.643 Y88.435 E3.53948
G1 X92.014 Y89.065 E3.56272
G1 X91.991 Y88.435 E3.57915
G1 X91.362 Y89.065 E3.60239
G1 X91.339 Y88.435 E3.61883
G1 X90.709 Y89.065 E3.64206
G1 X90.686 Y88.435 E3.65850
G1 X90.057 Y89.065 E3.68173
G1 X90.034 Y88.435 E3.69817
G1 X89.404 Y89.065 E3.72140
G1 X89.065 Y89.404 F7800.000
G1 X88.435 Y90.034 F1200.000 E3.74464
G1 X89.065 Y90.057 E3.76108
G1 X88.435 Y90.686 E3.78431
G1 X89.065 Y90.709 E3.80075
G1 X88.435 Y91.339 E3.82398
G1 X89.065 Y91.362 E3.84042
G1 X88.435 Y91.991 E3.86365
G1 X89.065 Y92.014 E3.88009
G1 X88.435 Y92.643 E3.90332
G1 X89.065 Y92.667 E3.91976
G1 X88.435 Y93.296 E3.94300
G1 X89.065 Y93.319 E3.95944
G1 X88.435 Y93.948 E3.98267
G1 X89.065 Y93.972 E3.99911
G1 X88.435 Y94.601 E4.02234
G1 X89.065 Y94.624 E4.03878
G1 X88.435 Y95.253 E4.06201
G1 X89.065 Y95.276 E4.07845
G1 X88.435 Y95.906 E4.10168
G1 X89.065 Y95.929 E4.11812
G1 X88.435 Y96.558 E4.14136
G1 X89.065 Y96.581 E4.15780
G1 X88.435 Y97.211 E4.18103
G1 X89.065 Y97.234 E4.19747
G1 X88.435 Y97.863 E4.22070
G1 X89.065 Y97.886 E4.23714
G1 X88.435 Y98.516 E4.26037
G1 X89.065 Y98.539 E4.27681
G1 X88.435 Y99.168 E4.30004
G1 X89.065 Y99.191 E4.31648
G1 X88.435 Y99.820 E4.33972
G1 X89.065 Y99.844 E4.35616
G1 X88.435 Y100.473 E4.37939
G1 X89.065 Y100.496 E4.39583
G1 X88.435 Y101.125 E4.41906
G1 X89.065 Y101.149 E4.43550
G1 X88.435 Y101.778 E4.45873
G1 X89.065 Y101.801 E4.47517
G1 X88.435 Y102.430 E4.49840
G1 X89.065 Y102.453 E4.51484
G1 X88.435 Y103.083 E4.53808
G1 X89.065 Y103.106 E4.55452
G1 X88.435 Y103.735 E4.57775
G1 X89.065 Y103.758 E4.59419
G1 X88.435 Y104.388 E4.61742
G1 X89.065 Y104.411 E4.63386
G1 X88.435 Y105.040 E4.65709
G1 X89.065 Y105.063 E4.67353
G1 X88.435 Y105.693 E4.69676
G1 X89.065 Y105.716 E4.71320
G1 X88.435 Y106.345 E4.73644
G1 X89.065 Y106.368 E4.75288
G1 X88.435 Y106.997 E4.77611
G1 X89.065 Y107.021 E4.79255
G1 X88.435 Y107.650 E4.81578
G1 X89.065 Y107.673 E4.83222
G1 X88.435 Y108.302 E4.85545
G1 X89.065 Y108.326 E4.87189
G1 X88.435 Y108.955 E4.89512
G1 X89.065 Y108.978 E4.91156
G1 X88.435 Y109.607 E4.93480
G1 X89.065 Y109.630 E4.95124
G1 X88.435 Y110.260 E4.97447
G1 X89.065 Y110.283 E4.99091
G1 X88.435 Y110.912 E5.01414
G1 X89.065 Y110.935 E5.03058
G1 X88.435 Y111.565 E5.05381
G1 X89.088 Y111.565 E5.07084
G1 X89.717 Y110.935 E5.09407
G1 X89.740 Y111.565 E5.11051
G1 X90.370 Y110.935 E5.13374
G1 X90.393 Y111.565 E5.15018
G1 X91.022 Y110.935 E5.17342
G1 X91.045 Y111.565 E5.18986
G1 X91.674 Y110.935 E5.21309
G1 X91.698 Y111.565 E5.22953
G1 X92.327 Y110.935 E5.25276
G1 X92.350 Y111.565 E5.26920
G1 X92.979 Y110.935 E5.29243
G1 X93.003 Y111.565 E5.30887
G1 X93.632 Y110.935 E5.33211
G1 X93.655 Y111.565 E5.34854
G1 X94.284 Y110.935 E5.37178
G1 X94.307 Y111.565 E5.38822
G1 X94.937 Y110.935 E5.41145
G1 X94.960 Y111.565 E5.42789
G1 X95.589 Y110.935 E5.45112
G1 X95.612 Y111.565 E5.46756
G1 X96.242 Y110.935 E5.49079
G1 X96.265 Y111.565 E5.50723
G1 X96.894 Y110.935 E5.53047
G1 X96.917 Y111.565 E5.54690
G1 X97.547 Y110.935 E5.57014
G1 X97.570 Y111.565 E5.58658
G1 X98.199 Y110.935 E5.60981
G1 X98.222 Y111.565 E5.62625
G1 X98.851 Y110.935 E5.64948
G1 X98.875 Y111.565 E5.66592
G1 X99.504 Y110.935 E5.68915
G1 X99.527 Y111.565 E5.70559
G1 X100.156 Y110.935 E5.72883
G1 X100.180 Y111.565 E5.74526
G1 X100.809 Y110.935 E5.76850
G1 X100.832 Y111.565 E5.78494
G1 X101.461 Y110.935 E5.80817
G1 X101.484 Y111.565 E5.82461
G1 X102.114 Y110.935 E5.84784
G1 X102.137 Y111.565 E5.86428
G1 X102.766 Y110.935 E5.88751
G1 X102.789 Y111.565 E5.90395
G1 X103.419 Y110.935 E5.92719
G1 X103.442 Y111.565 E5.94363
G1 X104.071 Y110.935 E5.96686
G1 X104.094 Y111.565 E5.98330
G1 X104.723 Y110.935 E6.00653
G1 X104.747 Y111.565 E6.02297
G1 X105.376 Y110.935 E6.04620
G1 X105.399 Y111.565 E6.06264
G1 X106.028 Y110.935 E6.08587
G1 X106.052 Y111.565 E6.10231
G1 X106.681 Y110.935 E6.12555
G1 X106.704 Y111.565 E6.14199
G1 X107.333 Y110.935 E6.16522
G1 X107.356 Y111.565 E6.18166
G1 X107.986 Y110.935 E6.20489
G1 X108.009 Y111.565 E6.22133
G1 X108.638 Y110.935 E6.24456
G1 X108.661 Y111.565 E6.26100
G1 X109.291 Y110.935 E6.28423
G1 X109.314 Y111.565 E6.30067
G1 X109.943 Y110.935 E6.32391
G1 X109.966 Y111.565 E6.34035
G1 X110.596 Y110.935 E6.36358
G1 F1800.000 E5.36358
G92 E0
G1 X88.435 Y89.381 F7800.000
